X:1
T:Marsch efter Berg
O:Älvdalen, Dalarna
R:Marsch
B:Spelmansmusik
M:2/4
L:1/8
K:D
|:"D"(A/>B/)A/F/ D{/D}D|(A/B/)A/G/ (F/G/)A/=c/|"G"(B{cB})A/G/ "D"(F{GF})D/F/|"A"(E{FE})D/C/ "D"(E{FE}D)|!BArmdtd!D2 z2:|
|:"D"(A/B/)A/G/ Ac|"G"d(d/e/) dc/A/|"A"cc/d/ (B{cB})A/G/|"D"AA/F/ DD/F/|"A"(E{FE})D/C/ "D"ED|D2 z2:|

